src/icons/icons_set_02/055-vtt.svg

<svg height="50" viewBox="0 0 50 50" width="50" xmlns="http://www.w3.org/2000/svg"><path d="m9.5 33v2c-5.23979677 0-9.5-4.2602032-9.5-9.5s4.26020323-9.5 9.5-9.5c5.2397968 0 9.5 4.2602032 9.5 9.5s-4.2602032 9.5-9.5 9.5zm0 0v-2c3.0306578 0 5.5-2.4693422 5.5-5.5s-2.4693422-5.5-5.5-5.5c-3.03065777 0-5.5 2.4693422-5.5 5.5s2.46934223 5.5 5.5 5.5zm24 0v2c-5.2397968 0-9.5-4.2602032-9.5-9.5s4.2602032-9.5 9.5-9.5 9.5 4.2602032 9.5 9.5-4.2602032 9.5-9.5 9.5zm0 0v-2c3.0306578 0 5.5-2.4693422 5.5-5.5s-2.4693422-5.5-5.5-5.5-5.5 2.4693422-5.5 5.5 2.4693422 5.5 5.5 5.5zm-6.0718169-27.05712c-1.5844068 0-2.8602712-1.2852-2.8602712-2.8812 0-1.5876 1.2758644-2.8728 2.8602712-2.8728 1.5760677 0 2.8602711 1.2852 2.8602711 2.8728 0 1.596-1.2842034 2.8812-2.8602711 2.8812zm-11.1196188 6.9449494 7.4934092 3.2800029c.8809575.3856113 1.3627631 1.3436007 1.1470697 2.2807552l-1.8945313 8.2314453c-.247748 1.0764268-1.3212038 1.7482037-2.3976306 1.5004557s-1.7482037-1.3212038-1.5004557-2.3976307l1.5226257-6.6155734-9.6607123-4.2286714c-1.51381613-.6626251-1.61651727-2.7711106-.1742654-3.5777214l10.438379-5.83789059c.8941448-.50006991 2.02159-.24361849 2.6114589.59400877l4.3139304 6.12587932 3.373044-.722896c1.0800441-.2314703 2.1432366.4564347 2.3747069 1.5364788.2314704 1.0800441-.4564346 2.1432366-1.5364787 2.3747069l-4.6660156 1c-.784044.1680329-1.5926522-.1484491-2.0543341-.804048l-4.0372846-5.73303593z" transform="translate(3 9)"/></svg>

<?xml version="1.0" encoding="UTF-8"?>
<svg width="50px" height="50px" viewBox="0 0 50 50" version="1.1" xmlns="http://www.w3.org/2000/svg" xmlns:xlink="http://www.w3.org/1999/xlink">
    <!-- Generator: Sketch 52.6 (67491) - http://www.bohemiancoding.com/sketch -->
    <title>055-vtt</title>
    <desc>Created with Sketch.</desc>
    <g id="055-vtt" stroke="none" stroke-width="1" fill="none" fill-rule="evenodd">
        <g id="wheels" transform="translate(3.000000, 9.000000)" fill="#000000" fill-rule="nonzero">
            <path d="M9.5,33 L9.5,35 C4.26020323,35 0,30.7397968 0,25.5 C0,20.2602032 4.26020323,16 9.5,16 C14.7397968,16 19,20.2602032 19,25.5 C19,30.7397968 14.7397968,35 9.5,35 L9.5,33 Z M9.5,33 L9.5,31 C12.5306578,31 15,28.5306578 15,25.5 C15,22.4693422 12.5306578,20 9.5,20 C6.46934223,20 4,22.4693422 4,25.5 C4,28.5306578 6.46934223,31 9.5,31 L9.5,33 Z M33.5,33 L33.5,35 C28.2602032,35 24,30.7397968 24,25.5 C24,20.2602032 28.2602032,16 33.5,16 C38.7397968,16 43,20.2602032 43,25.5 C43,30.7397968 38.7397968,35 33.5,35 L33.5,33 Z M33.5,33 L33.5,31 C36.5306578,31 39,28.5306578 39,25.5 C39,22.4693422 36.5306578,20 33.5,20 C30.4693422,20 28,22.4693422 28,25.5 C28,28.5306578 30.4693422,31 33.5,31 L33.5,33 Z M27.4281831,5.94288 C25.8437763,5.94288 24.5679119,4.65768 24.5679119,3.06168 C24.5679119,1.47408 25.8437763,0.18888 27.4281831,0.18888 C29.0042508,0.18888 30.2884542,1.47408 30.2884542,3.06168 C30.2884542,4.65768 29.0042508,5.94288 27.4281831,5.94288 Z M16.3085643,12.8878294 L23.8019735,16.1678323 C24.682931,16.5534436 25.1647366,17.511433 24.9490432,18.4485875 L23.0545119,26.6800328 C22.8067639,27.7564596 21.7333081,28.4282365 20.6568813,28.1804885 C19.5804545,27.9327405 18.9086776,26.8592847 19.1564256,25.7828578 L20.6790513,19.1672844 L11.018339,14.938613 C9.50452287,14.2759879 9.40182173,12.1675024 10.8440736,11.3608916 L21.2824526,5.52300101 C22.1765974,5.0229311 23.3040426,5.27938252 23.8939115,6.11700978 L28.2078419,12.2428891 L31.5808859,11.5199931 C32.66093,11.2885228 33.7241225,11.9764278 33.9555928,13.0564719 C34.1870632,14.136516 33.4991582,15.1997085 32.4191141,15.4311788 L27.7530985,16.4311788 C26.9690545,16.5992117 26.1604463,16.2827297 25.6987644,15.6271308 L21.6614798,9.89409487 L16.3085643,12.8878294 Z" id="Combined-Shape"></path>
        </g>
        <g id="biker" transform="translate(27.000000, 9.000000)"></g>
    </g>
</svg>
